yelp.svg

<svg height="20" viewBox="0 0 15.22 20" width="15.22" xmlns="http://www.w3.org/2000/svg"><path d="m1 9.27c.18 0 .31.06 3.55 1.4l.93.38a.85.85 0 0 1 .54.87.81.81 0 0 1 -.57.79l-1.34.43a22.09 22.09 0 0 1 -3.26 1 .67.67 0 0 1 -.59-.41 2.61 2.61 0 0 1 -.26-.83 7.36 7.36 0 0 1 .38-3.26.62.62 0 0 1 .62-.37zm6.6 10.28a19.78 19.78 0 0 0 .08-3.41s0-1.39 0-1.41a.81.81 0 0 0 -.57-.8.82.82 0 0 0 -1 .22l-.67.79c-2.27 2.65-2.37 2.78-2.44 2.93a.59.59 0 0 0 0 .29.85.85 0 0 0 .2.42 7 7 0 0 0 3.8 1.42.68.68 0 0 0 .57-.45zm5.11-1.11a6.87 6.87 0 0 0 2.53-3.22.69.69 0 0 0 -.24-.68 21.35 21.35 0 0 0 -3.23-1.13l-1.36-.41a.86.86 0 0 0 -.93.29.9.9 0 0 0 -.1 1l.53.86a37.59 37.59 0 0 0 2 3.2.63.63 0 0 0 .73.09zm-1.58-7.44a27.93 27.93 0 0 0 3.68-1 .69.69 0 0 0 .29-.65 7.14 7.14 0 0 0 -2.29-3.35.71.71 0 0 0 -.72 0 19.94 19.94 0 0 0 -2.09 2.7l-.81 1.15a.79.79 0 0 0 0 1 .86.86 0 0 0 .93.4zm-3.43-2.81c0-1.36-.45-7.38-.51-7.65a.72.72 0 0 0 -.55-.54 9.73 9.73 0 0 0 -4.83 1.38.78.78 0 0 0 -.21.69c.1.19 4.23 6.69 4.23 6.69.61 1 1.11.84 1.28.78s.65-.21.59-1.35z"/></svg>

<svg xmlns="http://www.w3.org/2000/svg" width="15.22" height="20" viewBox="0 0 15.22 20"><title>yelp</title><path d="M1,9.27c.18,0,.31.06,3.55,1.4l.93.38a.85.85,0,0,1,.54.87.81.81,0,0,1-.57.79l-1.34.43a22.09,22.09,0,0,1-3.26,1,.67.67,0,0,1-.59-.41A2.61,2.61,0,0,1,0,12.9,7.36,7.36,0,0,1,.38,9.64.62.62,0,0,1,1,9.27Zm6.6,10.28a19.78,19.78,0,0,0,.08-3.41s0-1.39,0-1.41a.81.81,0,0,0-.57-.8.82.82,0,0,0-1,.22l-.67.79C3.17,17.59,3.07,17.72,3,17.87a.59.59,0,0,0,0,.29.85.85,0,0,0,.2.42A7,7,0,0,0,7,20,.68.68,0,0,0,7.57,19.55Zm5.11-1.11a6.87,6.87,0,0,0,2.53-3.22.69.69,0,0,0-.24-.68,21.35,21.35,0,0,0-3.23-1.13L10.41,13a.86.86,0,0,0-.93.29.9.9,0,0,0-.1,1l.53.86a37.59,37.59,0,0,0,2,3.2.63.63,0,0,0,.73.09ZM11.13,11a27.93,27.93,0,0,0,3.68-1,.69.69,0,0,0,.29-.65v0A7.14,7.14,0,0,0,12.81,6a.71.71,0,0,0-.72,0A19.94,19.94,0,0,0,10,8.7L9.19,9.85a.79.79,0,0,0,0,1,.86.86,0,0,0,.93.4l0,0ZM7.7,8.19h0c0-1.36-.45-7.38-.51-7.65A.72.72,0,0,0,6.64,0,9.73,9.73,0,0,0,1.81,1.38a.78.78,0,0,0-.21.69c.1.19,4.23,6.69,4.23,6.69.61,1,1.11.84,1.28.78S7.76,9.33,7.7,8.19Z"/></svg>
